!!!SOCIAL_FUNCTION:	songs of the drum religion
!!!PDT:	1932
!!!OTL: No_101_Song_During_Which_Next_to_Leading_Warrior_Dances.krn
!!!REG: Wisconsin
!!!LANG: Non-Tone
!!!LING_GROUP: Algonquin
**kern
*staff1
=1-
*clefF4
*k[f#c#g#]
*M2/4
4r
8r
8c#\
=2!|:
4c#\
8.c#\L
16B\Jk
=3
4B\
8A\L
8B\J
=4
8.A\L
16A\Jk
8A\L
8A\J
=5||
*M3/4
2A\
8E\
16r
16c#\
=6||
*M2/4
4c#\
8.c#\L
16B\Jk
=7
4B\
8A\L
8B\J
=8
8.A\L
16A\Jk
8A\L
8A\J
=9||
*M3/4
2A\
4r
=10
16A\LK
8A\
16A\Jk
4A\
8A\
8r
=11||
*M2/4
8B\L
8B\J
8.A\L
16E\Jk
=12
4E\
8D\L
8E\J
=13||
*M5/8
4D\
8BB/L
8AA/
8BB/J
=14
4AA/
8FF#/L
8EE/
8FF#/J
=15||
*M2/4
8.EE/L
16EE/Jk
8EE/L
8EE/J
=16
2EE/
=17
4EE/
8r
8c#\
=18:|!
4EE/
4r
==
*-
